X: 30843
T: Our Willie Week
R: reel
M: 4/4
K: Dmajor
|:dB|AFEF EdBd|Ad (3dcd AdFB|AFEF DEFA|BABd e2ef|
edBe dABd|BAFd edBd|Ad (3dcd ADFB|1 AFEF D2:|2 AFEF D3||
|:B|Ad (3dcd Adfd|edfe dBAF|Ad (3dcd Adfd|edfe d3f|
edBe dABd|BAFd edBd|Ad (3dcd ADFB|1 AFEF D3:|2 AFEF D2||

